svgs/solid/object-group.svg

<svg xmlns="http://www.w3.org/2000/svg" viewBox="0 0 512 512"><!-- Font Awesome Pro 6.0.0-alpha2 by @fontawesome - https://fontawesome.com License - https://fontawesome.com/license (Commercial License) --><path d="M496 128C504.838 128 512 120.836 512 112V48C512 39.164 504.838 32 496 32H432C423.164 32 416 39.164 416 48V64H96V48C96 39.164 88.838 32 80 32H16C7.164 32 0 39.164 0 48V112C0 120.836 7.164 128 16 128H32V384H16C7.164 384 0 391.164 0 400V464C0 472.836 7.164 480 16 480H80C88.838 480 96 472.836 96 464V448H416V464C416 472.836 423.164 480 432 480H496C504.838 480 512 472.836 512 464V400C512 391.164 504.838 384 496 384H480V128H496ZM96 272V144C96 135.164 103.164 128 112 128H272C280.838 128 288 135.164 288 144V272C288 280.836 280.838 288 272 288H112C103.164 288 96 280.836 96 272ZM416 368C416 376.836 408.838 384 400 384H240C231.164 384 224 376.836 224 368V320H296C309.256 320 320 309.254 320 296V224H400C408.838 224 416 231.164 416 240V368Z"/></svg>

<svg xmlns="http://www.w3.org/2000/svg" viewBox="0 0 512 512"><!--! Font Awesome Pro 6.0.0-alpha3 by @fontawesome - https://fontawesome.com License - https://fontawesome.com/license (Commercial License) --><path d="M496 128C504.8 128 512 120.8 512 112v-64C512 39.16 504.8 32 496 32h-64C423.2 32 416 39.16 416 48V64H96V48C96 39.16 88.84 32 80 32h-64C7.164 32 0 39.16 0 48v64C0 120.8 7.164 128 16 128H32v256H16C7.164 384 0 391.2 0 400v64C0 472.8 7.164 480 16 480h64C88.84 480 96 472.8 96 464V448h320v16c0 8.836 7.164 16 16 16h64c8.838 0 16-7.164 16-16v-64c0-8.836-7.162-16-16-16H480V128H496zM96 272v-128c0-8.836 7.164-16 16-16h160c8.838 0 16 7.164 16 16v128C288 280.8 280.8 288 272 288h-160C103.2 288 96 280.8 96 272zM416 368c0 8.836-7.162 16-16 16h-160C231.2 384 224 376.8 224 368V320h72C309.3 320 320 309.3 320 296V224h80C408.8 224 416 231.2 416 240V368z"/></svg>
